images/blog/twitter.svg

<svg height="44" viewBox="0 0 44 44" width="44" xmlns="http://www.w3.org/2000/svg"><g fill="none" fill-rule="evenodd"><path d="m2 0h40c1.1045695 0 2 .8954305 2 2v40c0 1.1045695-.8954305 2-2 2h-40c-1.1045695 0-2-.8954305-2-2v-40c0-1.1045695.8954305-2 2-2z" fill="#00aced"/><path d="m11 28.6591926c0 .1153113.0572911.2190899.171875.311339.1909731.1306863.5309003.3228688 1.0197917.5765535 1.8638986.9686147 3.8194346 1.4529149 5.8666666 1.4529149 2.5514016 0 4.8697822-.6611081 6.9552091-1.9833441.9930595-.6303682 1.8753416-1.3894906 2.6468757-2.2773853.7715312-.8878975 1.3845451-1.8142178 1.8390622-2.7789901.4545141-.9647694.7944434-1.9314488 1.0197909-2.9000646.2253475-.9686128.3303813-1.9103068.3151045-2.8251115v-.4035882c.8937544-.6457428 1.5927062-1.3837225 2.0968728-2.2139655.0458363-.0922485.0687515-.1614335.0687515-.2075577 0-.0999355-.0381949-.1883406-.1145819-.2652154-.0763898-.0768748-.1642373-.1153092-.2635424-.1153092-.0534746 0-.1451384.0307475-.275.0922485-.0916666.0307476-.2043389.069185-.3380226.1153093-.1336808.0461242-.2482627.0864834-.3437486.1210773-.0954858.034594-.1585085.0557329-.1890621.0634198.1986101-.2229345.4048587-.5246597.6187485-.9051872.2138899-.3805275.3208334-.659192.3208334-.8360052 0-.0999354-.038192-.1864159-.1145819-.2594472s-.1680565-.109547-.275-.109547c-.0611131 0-.1222232.0192202-.1833333.0576575-.8708392.4689327-1.6843728.7879563-2.4406243.9570767-.9243109-.8840512-2.0281213-1.3260709-3.3114605-1.3260709-1.3138958 0-2.43298.4612369-3.357291 1.3837284-.9243109.9224886-1.3864576 2.0371494-1.3864576 3.3440089 0 .2306244.0152768.418962.0458334.5650218-1.2909806-.1076224-2.5361072-.4189591-3.7354182-.934016-1.1993109-.5150569-2.276384-1.2069123-3.2312485-2.0755927-.2215283-.2152476-.649303-.6649542-1.2833339-1.3491344-.0916673-.0922486-.1986107-.1383729-.3208334-.1383729-.0916672 0-.1871525.0614981-.2864584.1844971-.1986122.2998093-.3552079.6668789-.4697918 1.1012176-.1145837.4343387-.1718749.8590629-.1718749 1.2741814 0 1.1454261.3552047 2.1447776 1.0656251 2.9980813l-.3322918-.1614365c-.1909732-.0845617-.3322912-.1268425-.4239584-.1268425-.1298616 0-.2387147.0384374-.3265625.1153122-.0878474.0768748-.1317709.1768073-.1317709.2998063 0 .8071794.206248 1.5720661.6187503 2.2946838.4125021.7226176.9701352 1.2991638 1.6729158 1.729662l-.1374994-.0230636c-.0897571-.0192173-.1107636-.0249854-.1260415-.0288288-.1336811-.0057652-.2196178.0326722-.2921876.109547s-.108854.1614335-.108854.2536821c0 .0076869.0076387.0499677.0229164.1268425.2597238.7994924.6913157 1.4778957 1.2947904 2.0352335.6034776.5573378 1.3100677.9320942 2.1197938 1.1242812-1.3291754.8225531-2.7958274 1.2338229-4.4000006 1.2338229-.1069452 0-.2788183-.0115309-.5156251-.0345931-.3208348-.0153749-.4965277-.0230621-.5270833-.0230621-.0993061 0-.1852427.0384365-.2578125.1153107s-.1088542.1652781-.1088542.2652145z" fill="#fff"/></g></svg>

<?xml version="1.0" encoding="UTF-8"?>
<svg width="44px" height="44px" viewBox="0 0 44 44" version="1.1" xmlns="http://www.w3.org/2000/svg" xmlns:xlink="http://www.w3.org/1999/xlink">
    <!-- Generator: Sketch 49.3 (51167) - http://www.bohemiancoding.com/sketch -->
    <title>twitter</title>
    <desc>Created with Sketch.</desc>
    <defs></defs>
    <g id="✒️-blog" stroke="none" stroke-width="1" fill="none" fill-rule="evenodd">
        <g id="article" transform="translate(-472.000000, -3472.000000)">
            <g id="newsletter" transform="translate(448.000000, 3420.000000)">
                <g id="info" transform="translate(24.000000, 20.000000)">
                    <g id="twitter" transform="translate(0.000000, 32.000000)">
                        <path d="M2,0 L42,0 C43.1045695,-2.02906125e-16 44,0.8954305 44,2 L44,42 C44,43.1045695 43.1045695,44 42,44 L2,44 C0.8954305,44 1.3527075e-16,43.1045695 0,42 L0,2 C-1.3527075e-16,0.8954305 0.8954305,2.02906125e-16 2,0 Z" id="input-bg" fill="#00ACED"></path>
                        <path d="M11,28.6591926 C11,28.7745039 11.0572911,28.8782825 11.171875,28.9705316 C11.3628481,29.1012179 11.7027753,29.2934004 12.1916667,29.5470851 C14.0555653,30.5156998 16.0111013,31 18.0583333,31 C20.6097349,31 22.9281155,30.3388919 25.0135424,29.0166559 C26.0066019,28.3862877 26.888884,27.6271653 27.6604181,26.7392706 C28.4319493,25.8513731 29.0449632,24.9250528 29.4994803,23.9602805 C29.9539944,22.9955111 30.2939237,22.0288317 30.5192712,21.0602159 C30.7446187,20.0916031 30.8496525,19.1499091 30.8343757,18.2351044 L30.8343757,17.8315162 C31.7281301,17.1857734 32.4270819,16.4477937 32.9312485,15.6175507 C32.9770848,15.5253022 33,15.4561172 33,15.409993 C33,15.3100575 32.9618051,15.2216524 32.8854181,15.1447776 C32.8090283,15.0679028 32.7211808,15.0294684 32.6218757,15.0294684 C32.5684011,15.0294684 32.4767373,15.0602159 32.3468757,15.1217169 C32.2552091,15.1524645 32.1425368,15.1909019 32.0088531,15.2370262 C31.8751723,15.2831504 31.7605904,15.3235096 31.6651045,15.3581035 C31.5696187,15.3926975 31.506596,15.4138364 31.4760424,15.4215233 C31.6746525,15.1985888 31.8809011,14.8968636 32.0947909,14.5163361 C32.3086808,14.1358086 32.4156243,13.8571441 32.4156243,13.6803309 C32.4156243,13.5803955 32.3774323,13.493915 32.3010424,13.4208837 C32.2246525,13.3478524 32.1329859,13.3113367 32.0260424,13.3113367 C31.9649293,13.3113367 31.9038192,13.3305569 31.8427091,13.3689942 C30.9718699,13.8379269 30.1583363,14.1569505 29.4020848,14.3260709 C28.4777739,13.4420197 27.3739635,13 26.0906243,13 C24.7767285,13 23.6576443,13.4612369 22.7333333,14.3837284 C21.8090224,15.306217 21.3468757,16.4208778 21.3468757,17.7277373 C21.3468757,17.9583617 21.3621525,18.1466993 21.3927091,18.2927591 C20.1017285,18.1851367 18.8566019,17.8738 17.6572909,17.3587431 C16.45798,16.8436862 15.3809069,16.1518308 14.4260424,15.2831504 C14.2045141,15.0679028 13.7767394,14.6181962 13.1427085,13.934016 C13.0510412,13.8417674 12.9440978,13.7956431 12.8218751,13.7956431 C12.7302079,13.7956431 12.6347226,13.8571412 12.5354167,13.9801402 C12.3368045,14.2799495 12.1802088,14.6470191 12.0656249,15.0813578 C11.9510412,15.5156965 11.89375,15.9404207 11.89375,16.3555392 C11.89375,17.5009653 12.2489547,18.5003168 12.9593751,19.3536205 L12.6270833,19.192184 C12.4361101,19.1076223 12.2947921,19.0653415 12.2031249,19.0653415 C12.0732633,19.0653415 11.9644102,19.1037789 11.8765624,19.1806537 C11.788715,19.2575285 11.7447915,19.357461 11.7447915,19.48046 C11.7447915,20.2876394 11.9510395,21.0525261 12.3635418,21.7751438 C12.7760439,22.4977614 13.333677,23.0743076 14.0364576,23.5048058 L13.8989582,23.4817422 C13.8092011,23.4625249 13.7881946,23.4567568 13.7729167,23.4529134 C13.6392356,23.4471482 13.5532989,23.4855856 13.4807291,23.5624604 C13.4081593,23.6393352 13.3718751,23.7238939 13.3718751,23.8161425 C13.3718751,23.8238294 13.3795138,23.8661102 13.3947915,23.942985 C13.6545153,24.7424774 14.0861072,25.4208807 14.6895819,25.9782185 C15.2930595,26.5355563 15.9996496,26.9103127 16.8093757,27.1024997 C15.4802003,27.9250528 14.0135483,28.3363226 12.4093751,28.3363226 C12.3024299,28.3363226 12.1305568,28.3247917 11.89375,28.3017295 C11.5729152,28.2863546 11.3972223,28.2786674 11.3666667,28.2786674 C11.2673606,28.2786674 11.181424,28.3171039 11.1088542,28.3939781 C11.0362844,28.4708523 11,28.5592562 11,28.6591926 Z" id="twitter-icon--white" fill="#FFFFFF"></path>
                    </g>
                </g>
            </g>
        </g>
    </g>
</svg>
